X: 26697
T: Mike Cooney's Fancy
R: jig
M: 6/8
K: Gmajor
D|:GAB cAA|dcA G2g|gfd cAG|ADE FGA|
B2 G c{d}cA|dcA dfa|~g3 afd|cAF G2 D:|
GBd ~g3|dBG GAB|c2 =f fef|cAc =fcA|
d2 g {a}gfg|dcA =f2 a|gfd cAF|GAG G2 D|
GBd ~g3|dBG GAB|c2 =f fef|cAc =fcA|
B2 d c2 A|dcA dfa|~g3 afd|cAF G2 D||

